X: 607
T: Tie the Ribbons   #2
R: reel
%S: s:2 b:12(6+6)
B: Francis O'Neill: "The Dance Music of Ireland" (1907) #607
Z: Frank Nordberg - http://www.musicaviva.com
F: http://www.musicaviva.com/abc/tunes/ireland/oneill-1001/0607/oneill-1001-0607-1.abc
M: C
L: 1/8
K: Em
"^A"\
|: BGEF GBAG | FGAG FDDc | BGEF G2(ef) |[1 gefd Beed :|[2 {a}gefd Bee "^B"|:f | gfga bgeg |
| fgag fd [1 df | gfga bgef | gefd Bee :|[2 (3(def) | gabg fgaf | gfed Beed |]
%
%absent_minded_man.abc
